X:26
T:Anglais ur Vetlandasamlingen
T:(M39-26)
R:Anglais
R:Engelska
O:Vetlanda, Småland
B:Vetlandasamlingen
N:SMUS M39
N:ca 1850
Z:Till abc Jonas Brunskog
M:C|
L:1/8
K:Bb
F>BA>B d>BA>B|e>cA>c B>df>d|F>BA>B d>BA>B|e>cA>c B2z2:|
|:d2 d2 f4|d2 d2 b4|c2 c2 g4|AB cA B2z2:|

